remix/Editor/hashtag.svg

<svg viewBox="0 0 24 24" fill="currentColor" xmlns="http://www.w3.org/2000/svg"><path d="M7.78428 14L8.2047 10H4V8H8.41491L8.94043 3H10.9514L10.4259 8H14.4149L14.9404 3H16.9514L16.4259 8H20V10H16.2157L15.7953 14H20V16H15.5851L15.0596 21H13.0486L13.5741 16H9.58509L9.05957 21H7.04855L7.57407 16H4V14H7.78428ZM9.7953 14H13.7843L14.2047 10H10.2157L9.7953 14Z"/></svg>

<svg viewBox="0 0 24 24" xmlns="http://www.w3.org/2000/svg"><path fill="none" d="M0 0h24v24H0Z"/><path d="M7.784 14l.42-4H3.99V8h4.41l.52-5h2.01l-.53 5h3.98l.52-5h2.01l-.53 5h3.57v2h-3.79l-.42 4h4.2v2h-4.42l-.53 5h-2.02l.52-5H9.5l-.53 5H6.96l.52-5H3.9v-2h3.78Zm2.011 0h3.99l.42-4h-3.99l-.42 4Z"/></svg>
